assets/misc-grey/MiscGrey46.svg

<svg width="41" height="38" viewBox="0 0 41 38" fill="none" xmlns="http://www.w3.org/2000/svg">
<path fill-rule="evenodd" clip-rule="evenodd" d="M31.309 22.92C28.023 26.64 23.198 31.87 21.069 34.16C18.889 31.87 13.917 26.64 10.533 22.91C5.673 17.56 3.992 15.52 3.992 11.91C3.992 8.55997 6.768 3.71997 11.787 3.71997C18.436 3.72997 19.557 9.45997 19.605 9.72997C19.608 9.73997 19.615 9.75997 19.618 9.76997C19.629 9.81997 19.645 9.86997 19.661 9.91997C19.675 9.96997 19.688 10.01 19.707 10.06C19.726 10.1 19.75 10.14 19.774 10.19C19.797 10.23 19.818 10.27 19.844 10.31C19.875 10.35 19.91 10.39 19.945 10.44C19.971 10.47 19.994 10.5 20.021 10.52C20.067 10.57 20.117 10.61 20.168 10.65C20.191 10.67 20.212 10.69 20.236 10.7C20.293 10.74 20.354 10.77 20.418 10.81C20.441 10.82 20.463 10.83 20.488 10.84C20.548 10.87 20.612 10.89 20.677 10.91C20.709 10.92 20.741 10.92 20.773 10.93C20.796 10.94 20.817 10.95 20.84 10.95C20.88 10.96 20.919 10.95 20.959 10.96C20.998 10.96 21.035 10.96 21.074 10.96C21.135 10.96 21.194 10.96 21.254 10.95C21.28 10.95 21.307 10.95 21.333 10.95C21.349 10.95 21.363 10.94 21.378 10.94C21.435 10.93 21.488 10.91 21.542 10.89C21.583 10.88 21.625 10.87 21.665 10.85C21.713 10.83 21.758 10.8 21.804 10.78C21.844 10.76 21.884 10.74 21.921 10.71C21.963 10.68 22.001 10.65 22.04 10.62C22.075 10.59 22.11 10.56 22.143 10.53C22.179 10.49 22.21 10.45 22.243 10.41C22.271 10.38 22.3 10.34 22.325 10.31C22.353 10.27 22.375 10.22 22.399 10.18C22.422 10.13 22.445 10.09 22.464 10.05C22.481 10.01 22.494 9.95997 22.508 9.91997C22.524 9.86997 22.54 9.80997 22.551 9.75997C22.554 9.73997 22.561 9.72997 22.563 9.70997C22.604 9.46997 23.621 3.72997 30.131 3.71997C34.992 3.71997 37.68 8.55997 37.68 11.91C37.68 15.53 36.042 17.57 31.309 22.92ZM30.131 0.719971C25.435 0.729971 22.608 3.07997 21.066 5.52997C19.488 3.07997 16.594 0.729971 11.788 0.719971C5.426 0.719971 0.992004 6.61997 0.992004 11.91C0.992004 16.86 3.592 19.73 8.313 24.92C12.758 29.82 19.928 37.31 20 37.39C20.014 37.4 20.03 37.41 20.044 37.42C20.051 37.43 20.053 37.44 20.061 37.45C20.073 37.46 20.089 37.46 20.102 37.47C20.233 37.59 20.376 37.68 20.531 37.74C20.545 37.75 20.561 37.75 20.575 37.75C20.739 37.81 20.91 37.85 21.083 37.85H21.084C21.261 37.85 21.436 37.81 21.603 37.75C21.617 37.75 21.631 37.74 21.645 37.74C21.803 37.67 21.95 37.58 22.083 37.46C22.095 37.45 22.11 37.44 22.121 37.43C22.128 37.43 22.13 37.42 22.137 37.41C22.15 37.4 22.167 37.39 22.181 37.37C22.25 37.3 29.231 29.81 33.557 24.91C38.15 19.71 40.68 16.85 40.68 11.91C40.68 6.61997 36.348 0.719971 30.131 0.719971Z" fill="#1A1919"/>
</svg>

<svg xmlns="http://www.w3.org/2000/svg" viewBox="0 0 41 38"><path fill-rule="evenodd" d="M31.309 22.92c-3.286 3.72-8.111 8.95-10.24 11.24-2.18-2.29-7.152-7.52-10.536-11.25-4.86-5.35-6.541-7.39-6.541-11 0-3.35 2.776-8.19 7.795-8.19 6.649.01 7.77 5.74 7.818 6.01l.013.04c.011.05.027.1.043.15.014.05.027.09.046.14.019.04.043.08.067.13.023.04.044.08.07.12.031.04.066.08.101.13.026.03.049.06.076.08.046.05.096.09.147.13.023.02.044.04.068.05.057.04.118.07.182.11l.07.03c.06.03.124.05.189.07.032.01.064.01.096.02.023.01.044.02.067.02.04.01.079 0 .119.01h.115c.061 0 .12 0 .18-.01h.079c.016 0 .03-.01.045-.01.057-.01.11-.03.164-.05.041-.01.083-.02.123-.04.048-.02.093-.05.139-.07.04-.02.08-.04.117-.07.042-.03.08-.06.119-.09l.103-.09c.036-.04.067-.08.1-.12.028-.03.057-.07.082-.1.028-.04.05-.09.074-.13.023-.05.046-.09.065-.13.017-.04.03-.09.044-.13.016-.05.032-.11.043-.16.003-.02.01-.03.012-.05.041-.24 1.058-5.98 7.568-5.99 4.861 0 7.549 4.84 7.549 8.19 0 3.62-1.638 5.66-6.371 11.01zM30.131.72c-4.696.01-7.523 2.36-9.065 4.81-1.578-2.45-4.472-4.8-9.278-4.81C5.426.72.992 6.62.992 11.91c0 4.95 2.6 7.82 7.321 13.01C12.758 29.82 19.928 37.31 20 37.39l.044.03c.007.01.009.02.017.03.012.01.028.01.041.02.131.12.274.21.429.27.014.01.03.01.044.01.164.06.335.1.508.1h.001c.177 0 .352-.04.519-.1.014 0 .028-.01.042-.01.158-.07.305-.16.438-.28.012-.01.027-.02.038-.03.007 0 .009-.01.016-.02.013-.01.03-.02.044-.04.069-.07 7.05-7.56 11.376-12.46 4.593-5.2 7.123-8.06 7.123-13C40.68 6.62 36.348.72 30.131.72z" clip-rule="evenodd"/></svg>
